X:1
T:Schwanengesang, D.957
T:Kriegers Ahnung
T:Schwanengesang, D.957
T:2. Kriegers Ahnung
T:Franz Schubert
T:Ludwig Rellstab
T:OpenScore (CC0)
T:OpenScore (CC0)
T:OpenScore (CC0)
T:OpenScore (CC0)
T:OpenScore (CC0)
T:OpenScore (CC0)
C:Franz Schubert
Z:Ludwig Rellstab
Z:OpenScore (CC0)
%%score 1 { ( 2 4 ) | ( 3 5 ) }
L:1/8
Q:1/4=60
M:3/4
K:Eb
V:1 treble nm="Voice"
V:2 treble nm="Piano"
V:4 treble 
V:3 bass 
V:5 bass 
V:1
"^Nicht zu langsam" z6 | z6 | z6 | z6 | z6 | z6 | z6 | z6 | z2 z2 z G | G3/2 G/ c3 G | %10
w: ||||||||In|tie- fer Ruh liegt|
w: ||||||||||
 E3/2 D/ C3 B, | =A,3/2 =A/ A2 A2 | G4 z2 | z6 | z2 z2 z3/2 G/ | G3/2 G/ A7/2 G/ | ^F3/2 D/ G2 z2 | %17
w: um mich her der||||Mir|ist das Herz so|bang und schwer,|
w: |Waf- fen- brü- der|Kreis.|||||
 z2 z2 z3/2 G/ | ^F3/2 D/ G2 z G | G3/2 A/ B2 !turn!dc/d/ | e6- | e2 z2 z e | (e7/2 F/) F2 | %23
w: so|bang, so schwer, von|Sehn- sucht mir so _ _|heiss,|_ von|Sehn- * sucht|
w: ||||||
 z2 F2 ^F2 | G6 | z6 | z6 | !breath!!fermata!z6 || %28
w: mir so|heiss.||||
w: |||||
[M:4/4][Q:1/4=95]"^Etwas schneller" z4 z2 z!p! A | A2 E2 c3 A | F3 B (B2 E) _d | c2 _d2 e3 c | %32
w: Wie|hab' ich oft so|süss ge- ruht _ an|ih- rem Bu- sen|
w: ||||
 B6[Q:1/4=93] z B |[Q:1/4=91] B2[Q:1/4=88] c2[Q:1/4=85] _d3 B | =A6[Q:1/4=90] z[Q:1/4=95]!mp! _A | %35
w: warm, an|ih- rem Bu- sen|warm! wie|
w: |||
 A2 E2 c3 A | F3 B (B2 E) _d | c2 _d2 e3 c | B6 B2 | B2 _c2 _d3 B | A6 z2 | z8 | %42
w: freund- lich schien des|Heer- des Gluth, _ lag|sie in mei- nem|Arm, lag'|sie in mei- nem|Arm!||
w: |||||||
[Q:1/4=91] z4[Q:1/4=88] z2 ^C2 | ^C3 C C2 C2 | ^F3 F F4 | z2 ^c4 ^C C | ^F3 F F4 | z4 z2 =A2 | %48
w: Hier,|wo der Flam- men|düst'- rer Schein,|ach, nur auf|Waf- fen spielt,|hier|
w: ||||||
 =A2 A2 A2 A2 | =c3 =B =A4 | z4 z2 c2 | c2 c2 c2 c2 | c3 _A F4- | F2 z2 z2 c2 | _d4- dB B_G | %55
w: fühlt die Brust sich|ganz al- lein,|hier|fühlt die Brust sich|ganz al- lein,|_ der|Weh- * * muth _|
w: |||||||
 (F2 A4) =G2 | F2 c2 f2 B2 | A4 G4 | F4 z4 | z8 ||[K:C][M:6/8][Q:1/4=135]"^Geschwind, unruhig" z6 | %61
w: Thrä- * ne|quillt, der Weh- muth|Thrä- ne|quillt.|||
w: ||||||
 z6 |!p! G3 z _A A | G2 G _Af d | =B3 z _A A | G2 G _Af d | B3- B z E | =A2 B c2 d | e6- | %69
w: |Herz, dass der|Trost dich nicht _ ver-|lässt, dass der|Trost dich nicht _ ver-|lässt! _ es|ruft noch man- che|Schlacht.|
w: ||||||||
 e2 z z2 z | z6 | z2 z (e2 d) | (d3 c3-) | c3- c2 B | (B3 A3) | z2 z (A2 G) | (G2 F f3-) | %77
w: _||Bald _|ruh' _|_ _ ich|wohl _|und _|schla- * *|
w: ||||||||
 f3- f2 e | (e3 d2) z | z2 z d3 | _e3 c z z | f3- f2 _d | c6 | z2 z!mp! c3 | c3 f2 z | G3- GA G | %86
w: * * fe|fest, _|Herz-|lieb- ste,|gu- * te|Nacht!|Herz-|lieb- ste,|gu- * * te|
w: |||||||||
 F6 | z6 | G3 z _A A | G2 G _A_B A | G3 z _B B | A2 A _Bc B | A3- A z z | z2 z z2 ^c | d2 d f2 f | %95
w: Nacht!||Herz, dass der|Trost dich nicht _ ver-|lässt, dass der|Trost dich nicht _ ver-|lässt! _|es|ruft noch man- che|
w: |||||||||
 e6- | e2 z z2 z | z6 | z2 z!p! (e2 d) | (d3 c3-) | c3- c2 B | (B3 A2) z | z2 z (A2 G) | %103
w: Schlacht.|_||Bald _|ruh' _|_ _ ich|wohl _|und _|
w: ||||||||
 (G2 F f3-) | f3- f2 e | (e3 d2) z | z2 z!pp! d3 | _e3 c2 z | f3- f2 _d | c6 | z2 z ^F3 || %111
w: schla- * *|* * fe|fest, _|Herz-|lieb- ste,|gu- * te|Nacht!|Herz-|
w: ||||||||
[K:Eb][M:3/4][Q:1/4=60]"^Tempo I" G6 | G2 z2 z2 | z2 G7/2 G/ | !breath!!fermata!A6 | z6 | %116
w: lieb-|ste,|gu- te|Nacht!||
w: |||||
 z2 z2!p! =A2 |!>(! c4 G2 | z2 G7/2 G/!>)! |!ppp! G6- | G2 z2 z2 | !fermata!z6 |] %122
w: Herz-|lieb- ste,|gu- te|Nacht!|_||
w: ||||||
V:2
 [G,CE]7/2 [G,CE]/ [G,CE] z | [G,CE]7/2 [G,CE]/ [G,CE] z | [G,CE]2 [G,CE]2 [G,CE]2 | %3
!>(! [A,=B,D]7/2!>)!!p! [A,B,D]/ !fermata![A,B,D]2 | [=A,CD]7/2 [A,CD]/ [A,CD] z | %5
 [=A,CD]7/2 [A,CD]/ [A,CD] z | [G,CE]2 [G,CD]2 [G,=B,E]2 |[K:bass] [E,G,C]7/2 [E,G,C]/ [E,G,C] z | %8
 [E,G,C]7/2 [E,G,C]/ [E,G,C] z | [E,G,C]7/2 [E,G,C]/ [E,G,C] z | [E,G,C]7/2 [E,G,C]/ [E,G,C] z | %11
 [E,^F,C]2 [E,F,C]2 [E,F,C]2 | ([E,C]2 [D,=B,]2) [G,C]>[G,B,D] | [G,CE]2 [=F,CE]2 [^F,CE]2 | %14
 ([CE]2 [=B,D]2) x2 |!<(! [D,=B,D]>[D,B,D]!<)!!mf!!>(! [D,B,D]4!>)! | %16
!pp! [D,CD]>[D,CD] [D,=B,D]7/2[K:treble] [G,=B,DG]/ | %17
!<(! [G,=B,DG]>!<)![G,B,DG]!>(! ([A,A]7/2 [G,G]/)!>)! | ^F>D [G,=B,DG]4 | %19
"_cresc." [_B,EG]>[A,EA] [B,EB]2 [DFB]2 | [E_G=A]6- | [E_G=A]2!p! [EGA]2 [EGB]2 | [EFc]6 | %23
"_cresc." [Fc]4 [^Fc]2 |!f!!>(! [DG=B]7/2 [DGB]/ [DGB]!>)! z |!mf!!mp! [EGc]7/2 [EGc]/ [EGc] z | %26
"_dim." [=B,DG]7/2 [B,DG]/ [CEG] z | !fermata![=B,DG]6 || %28
[M:4/4][K:bass] (3(CEC (3A,E,A, (3CEC (3A,E,A,) | (3(CEC (3A,E,A, (3CEC (3A,E,A,) | %30
 (3=DFD (3A,F,A, (3_DED (3G,E,!p!G, |!<(! (3A,EE, (3B,EE,!<)!!mf!!>(! (3CEE, (3A,EE,!>)! | %32
!p! (3G,EE, (3G,EE, (3G,EE,"_dim." (3_G,B,E | (3_DB,F, (3ECF, (3FDF, (3DB,F, | %34
 (3C=A,F, (3CA,F, (3CA,F,!pp! (3C_A,!p!E, | (3CEC (3A,E,A, (3CEC (3A,E,A, | %36
 (3=DFD (3A,F,A, (3_DED (3G,E,G, |!<(! (3A,EE, (3B,EE,!<)!!>(! (3CEE, (3A,EE,!>)! | %38
 (3G,EE, (3G,EE, (3G,EE, (3_G,_D_D, |"_dim." (3_G,_D_D, (3A,DD, (3B,DD, (3G,DD, | %40
!pp! (3(F,_D_D, (3F,DD, (3F,DD, (3F,DD, | (3F,A,_D (3A,F,_D, z4) | %42
!pp! (3z!pp! [^C,^C][C,C]!pp! (3[C,C]!pp![C,C][C,C]!pp! (3[C,C]!pp![C,C][C,C]!pp! (3[C,C]!pp![C,C][C,C] | %43
!p! (3[^C,^C]!<(![C,C][C,C] (3[C,=B,C][C,B,C][C,B,C] (3[C,=A,C][C,A,C][C,A,C] (3[C,^G,C][C,G,C]!<)![C,G,C] | %44
!>(! (3[^C,=A,^C][C,A,C][C,A,C] (3[C,A,C][C,A,C]!>)![C,A,C]!mp! (3[C,A,C][C,A,C][C,A,C] (3[C,A,C][C,A,C][C,=B,C] | %45
 (3:2:1!/![^C,^C]3 (3:2:1!/![C,=B,C]3 (3:2:1!/![C,=A,C]3 (3:2:1!/![C,^G,C]3 | %46
!>(! (3:2:1!/![^C,=A,^C]6 (3:2:1!/![C,A,C]6!>)! | %47
!p! (3[^C,=A,^C][^F,A,C][F,A,C] (3:2:1!/![F,A,C]3 (3:2:1!/![F,A,C]6 | %48
!<(! (3:2:1!/![^F,=A,^C]6 (3:2:1!/![=F,A,C]3 (3:2:1!/![F,A,=C]3!<)! | %49
!>(! (3:2:1!/![=E,=A,C]6!>)! (3:2:1!/![E,A,C]6 |!p! (3:2:1!/![=E,=A,C]6!mp! (3:2:1!/![E,A,C]6 | %51
!mf!!<(! (3:2:1!/![=E,=A,C]6 (3:2:1!/![E,A,C]6!<)! |!>(! (3:2:1!/![F,_A,C]6 (3:2:1!/![F,A,C]6!>)! | %53
!p! (3[F,A,C][F,CF][F,CF] (3:2:1!/![F,CF]3 (3:2:1!/![F,CF]3[K:treble]!<(! (3:2:1!/![CEF]3 | %54
 (3:2:1!/![B,_D_G]3!<)!!mf! (3:2:1!/![A,DF]3!>(! (3:2:1!/![B,DG]3!>)! (3:2:1!/![B,G]3 | %55
!mp! (3:2:1!/![A,CF]3 (3:2:1!/![A,CF]3 (3:2:1!/![B,CF]3 (3:2:1!/![B,C=E]3 | %56
!<(! (3:2:1!/![A,CF]3 (3:2:1!/![=A,C_G]3!<)!!>(! (3:2:1!/![A,CF]3 (3[B,F][B,F][B,F=G]!>)! | %57
!p! (3:2:1!/![CFA]3 (3:2:1!/![CFA]3 (3:2:1!/![B,FG]3 (3:2:1!/![B,=EG]3 | %58
 (3:2:1!/![A,F]6 (3:2:1!/![A,F]6 | (3:2:1!/![A,F]3 (3:2:1!/![A,CF]3 (3:2:1!/![A,CF]6 || %60
[K:C][M:6/8] G,/=B,/D/F/D/B,/ _A,/B,/D/F/D/B,/ | G,/B,/D/F/D/B,/ _A,/B,/D/F/D/B,/ | %62
 G,/B,/D/F/D/B,/ _A,/B,/D/F/D/B,/ |!p!"_cresc." G,/B,/D/F/D/B,/ _A,/B,/D/F/D/B,/ | %64
 G,/B,/D/F/D/B,/ _A,/B,/D/F/D/B,/ | G,/B,/D/F/D/B,/ _A,/B,/D/F/D/B,/ | %66
!mf! G,/B,/D/F/D/B,/ ^G,/B,/D/E/D/B,/ |[K:bass] E,/=A,/C/E/C/A,/ D,/F,/A,/D/A,/F,/ | %68
!f! E,/^G,/B,/E/B,/G,/ E,/A,/C/E/C/A,/ | E,/^G,/B,/E/B,/G,/ E,/A,/C/E/C/A,/ | %70
"_dim." E,/^G,/B,/E/B,/G,/ E,/G,/B,/E/B,/G,/ | E,/^G,/B,/E/B,/G,/!p! E, z z | %72
[K:treble]!pp! z ([C=G]G,) z ([CG]G,) | z ([CG]G,) z ([C^G]^G,) | z ([CA]A,) z ([CA]A,) | %75
 z ([^C=G]A,) z ([CG]A,) | z ([DF]A,) z ([DF]A,) | z ([DF]_A,) z ([DF]A,) | z ([DF]G,) z ([DF]G,) | %79
 z ([DF]G,) z (([DF]G,)) |!ppp! z ([C_E]G,) z ([CE]_A,) | z[K:bass] [_A,_B,F]F, z [G,_D_E]_E, | %82
 z [_A,C_E]_E, z [A,CE]E, |!pp! z!<(! [_B,C=E]=E, z [B,CE]E,!<)! | %84
!mf! z!>(! [=A,CF]F, z [A,CF]F,!>)! |!pp! z [DF]G, z [_B,CE]G, | z [A,CF]F, z [A,CF]F, | %87
 z [A,CF]F, z [_A,CF]F, |[K:treble] G,/=B,/D/F/D/B,/ _A,/B,/D/F/D/B,/ | %89
"_cresc." G,/B,/D/F/D/B,/ _A,/B,/D/F/D/B,/ | G,/B,/D/F/D/B,/ _B,/C/E/G/E/C/ | %91
 A,/^C/E/G/E/C/ _B,/C/E/G/E/C/ |!f! A,/^C/E/G/E/C/ _B,/C/E/G/E/C/ | A,/^C/E/G/E/C/ _B,/C/E/G/E/C/ | %94
[K:bass] F,/_B,/D/F/D/B,/ F,/A,/D/F/D/A,/ |!f! E,/!>(!=B,/D/E/D/B,/ E,/A,/C/E/C/!>)!A,/ | %96
!mf! E,/B,/D/E/D/B,/ E,/A,/C/E/C/A,/ |"_dim." E,/^G,/B,/E/B,/G,/ E,/G,/B,/E/B,/G,/ | %98
 E,/^G,/B,/E/B,/G,/!p! E, z z |[K:treble]!pp! z ([C=G]G,) z ([CG]G,) | z ([CG]G,) z ([C^G]^G,) | %101
 z [CA]A, z [CA]A, | z [^C=G]A, z [CG]A, | z [DF]A, z [DF]A, | z [DF]_A, z [DF]A, | %105
 z [DF]G, z [DF]G, | z [DF]G, z [DF]G, |!ppp! z [C_E]G, z [CE]_A, | %108
 z[K:bass] [_A,_B,F]F, z [G,_D_E]_E, |!<(! z [_A,C_E]_E, z [A,CE]!<)!!mp!E, | %110
!>(! z [G,C_E]_E, z [^F,CE]!>)!!pp!E, ||[K:Eb][M:3/4][K:treble] [G,CE]7/2 E/ [G,CE] z | %112
 [G,CE]7/2 [G,CE]/ [G,CE] z | [G,CE]2 [G,CE]2 [G,CE]2 | %114
!>(! [A,B,D]7/2!>)!!p! [A,B,D]/ !fermata![A,B,D]2 | [=A,CD]7/2 [A,CD]/ [A,CD] z | %116
 [=A,CD]7/2 [A,CD]/ [A,CD] z |!>(! [G,CE]7/2 [G,CE]/!>)! [G,CE] z | %118
!pp! [G,CD]2 [G,=B,D]2 [G,B,E]2 |[K:bass]!ppp! [E,G,C]7/2 [E,G,C]/ [E,G,C] z | %120
!ppp! [E,G,C]7/2 [E,G,C]/ [E,G,C] z |!ppp! !fermata![E,G,C]6 |] %122
V:3
!pp! [C,,C,]7/2 [C,,C,]/ [C,,C,] z | [C,,C,]7/2 [C,,C,]/ [C,,C,] z | [C,,C,]2 [E,,E,]2 [C,,C,]2 | %3
 [F,,F,]7/2 [F,,F,]/ !fermata![F,,F,]2 |!pp! [^F,,,^F,,]7/2 [F,,,F,,]/ [F,,,F,,] z | %5
 [^F,,,^F,,]7/2 [F,,,F,,]/ [F,,,F,,] z | [G,,,G,,]2 [G,,,G,,]2 [G,,,G,,]2 | %7
 [C,,C,]7/2 [C,,C,]/ [C,,C,] z | [C,,C,]7/2 [C,,C,]/ [C,,C,] z | [C,,C,]7/2 [C,,C,]/ [C,,C,] z | %10
 [C,,C,]7/2 [C,,C,]/ .[C,,C,].[B,,,B,,] | [=A,,,=A,,]2 [A,,,A,,]2 [A,,,A,,]2 | %12
 [G,,,G,,]7/2 G,,/ [E,,E,]>[D,,D,] | [C,,C,]>[_B,,,_B,,] [=A,,,=A,,]2 [_A,,,_A,,]2 | %14
 [G,,,G,,]4 z3/2 G,,/ | G,,>G,, (A,,7/2 G,,/) | ^F,,>D,, G,,7/2 [G,,D,]/ | [G,,D,]>[G,,D,] D,4 | %18
 D,2 [G,,D,]4 | [E,G,]>[_C,E,] [B,,E,G,]2 [B,,F,A,]2 | [C,_G,=A,]6- | [C,_G,=A,]2 C,2 B,,2 | %22
 =A,,6 | [_A,,,_A,,]4 [A,,,A,,]2 | [G,,,G,,]7/2 [G,,,G,,]/ [G,,,G,,] z | %25
 [G,,,G,,]7/2 [G,,,G,,]/ [G,,,G,,] z | [G,,,G,,]7/2 [G,,,G,,]/ [C,,C,] z | %27
!p! !fermata![G,,,G,,]6 ||[M:4/4] (A,,,2 A,,) z (A,,,2 A,,) z | (A,,,2 A,,) z (A,,,2 A,,) z | %30
 (A,,,2 A,,) z (A,,,2 A,,) z | ([A,,,A,,]6 C,,2) | E,,8 | (B,,,6 _D,,2) | F,,6 _A,, z | %35
 (A,,,2 A,,) z (A,,,2 A,,) z | (A,,,2 A,,) z (A,,,2 A,,) z | ([A,,,A,,]6 C,,2 | %38
 E,,6) [_G,,,_G,,]2 | ([_G,,,_G,,]6 B,,,2) | _D,,8- | D,,2 z2 (3A,,F,,E,, (3(._D,,.D,,.D,,) | %42
 (3^C,,C,,C,, (3C,,C,,C,, (3C,,C,,C,, (3C,,C,,C,, | %43
 ([^C,,^C,]2 [=B,,,=B,,]2 [=A,,,=A,,]2 [^G,,,^G,,]2) | [=A,,,=A,,]6 [A,,,A,,]>[=B,,,=B,,] | %45
 [^C,,^C,]2 [=B,,,=B,,]2 [=A,,,=A,,]2 [^G,,,^G,,]2 | [=A,,,=A,,]8- | %47
 [A,,,A,,]2 [=A,,,=A,,]2 [A,,,A,,]2 [A,,,A,,]2 | [=A,,,=A,,]2 [A,,,A,,]2 [A,,,A,,]2 [A,,,A,,]2 | %49
!f! [=A,,,=A,,]3!mp! [A,,,A,,] [A,,,A,,]4- | [A,,,A,,]2 [=A,,,=A,,]2 [A,,,A,,]2 [A,,,A,,]2 | %51
 [=A,,,=A,,]2 [A,,,A,,]2 [A,,,A,,]2!f! [A,,,A,,]2 | [_A,,,_A,,]3!mp! [A,,,A,,] [A,,,A,,]4- | %53
 [A,,,A,,]2 [A,,,A,,]2 [A,,,A,,]2 [=A,,,=A,,]2 | [B,,,B,,]2 [_C,,_C,]2 [B,,,B,,]2 [_D,,_D,]2 | %55
 [=C,,=C,]6 [C,,C,]2 | ([F,,F,]2 [_E,,_E,]2 [=D,,=D,]2 [_D,,_D,]2) | [C,,C,]8 | [F,,,F,,]8- | %59
 [F,,,F,,]2 [A,,,A,,]2 [A,,,A,,]2 [A,,,A,,]2 ||[K:C][M:6/8]!p! z2 [D,F,] z2 [D,F,] | %61
 z2 [D,F,] z2 [D,F,] | z2 [D,F,] z2 [D,F,] | z2 [D,F,] z2 [D,F,] | z2 [D,F,] z2 [D,F,] | %65
 z2 [D,F,] z2 [D,F,] | z2 [D,F,] z2 [D,E,] | z2 [C,E,] z2 [A,,D,] | z2 [^G,,B,,] z2 [A,,C,] | %69
 z2 [^G,,B,,] z2 [A,,C,] | z2 [^G,,B,,] z2 [G,,B,,] | z2 [^G,,B,,] E,, z z | %72
 [E,,E,] z z [E,,E,] z z | [E,,E,] z z [E,,E,] z z | [F,,F,] z z [F,,F,] z z | %75
 [E,,E,] z z [E,,E,] z z | [D,,D,] z z [D,,D,] z z | [C,,C,]2 z [C,,C,]2 z | %78
 [B,,,B,,]2 z [B,,,B,,]2 z | [B,,,B,,]2 z [B,,,B,,]2 z | [C,,C,]2 z [_A,,,_A,,]2 z | %81
 [_D,,_D,]2 z _E,,2 z | [_A,,,_A,,]2 z [A,,,A,,]2 z | [G,,,G,,]2 z [G,,,G,,]2 z | %84
 [F,,,F,,]2 z [=A,,,=A,,]2 z | [_B,,,_B,,]2 z [C,,C,]2 z | [F,,,F,,]2 z [F,,,F,,]2 z | %87
 [F,,,F,,]2 z [_A,,,_A,,]2 z | z2 [D,F,] z2 [D,F,] | z2 [D,F,] z2 [D,F,] | z2 [D,F,] z2 [E,G,] | %91
 z2 [E,G,] z2 [E,G,] | z2 [E,G,] z2 [E,G,] | z2 [E,G,] z2 [E,G,] | z2 [D,F,] z2 [D,F,] | %95
 z2 [=B,,E,] z2 [C,E,] | z2 [B,,E,] z2 [C,E,] | z2 [^G,,B,,] z2 [G,,B,,] | z2 [^G,,B,,] E,, z z | %99
 [E,,E,]2 z [E,,E,]2 z | [E,,E,]2 z [E,,E,]2 z | [F,,F,]2 z [F,,F,]2 z | [E,,E,]2 z [E,,E,]2 z | %103
 [D,,D,]2 z [D,,D,]2 z | [C,,C,]2 z [C,,C,]2 z | [B,,,B,,]2 z [B,,,B,,]2 z | %106
 [B,,,B,,]2 z [B,,,B,,]2 z | [C,,C,]2 z [_A,,,_A,,]2 z | [_D,,_D,]2 z _E,,2 z | %109
 [_A,,,_A,,]2 z [A,,,A,,]2 z | [_A,,,_A,,]2 z [A,,,A,,]2 z || %111
[K:Eb][M:3/4]!pp! [G,,,G,,]7/2 [G,,,G,,]/ [G,,,G,,] z | [G,,,G,,]7/2 [G,,,G,,]/ [G,,,G,,] z | %113
 [G,,,G,,]2 [C,,C,]2 [E,,E,]2 |!mf! [F,,F,]7/2 [F,,F,]/ !fermata![F,,F,]2 | %115
 [^F,,,^F,,]7/2 [F,,,F,,]/ [F,,,F,,] z | [^F,,,^F,,]7/2 [F,,,F,,]/ [F,,,F,,] z | %117
 [G,,,G,,]7/2 [G,,,G,,]/ [G,,,G,,] z | [G,,,G,,]2 [G,,,G,,]2 [G,,,G,,]2 | %119
 [C,,C,]7/2 [C,,C,]/ [C,,C,] z | [C,,C,]7/2 [C,,C,]/ [C,,C,] z | !fermata![C,,C,]6 |] %122
V:4
 x6 | x6 | x6 | x6 | x6 | x6 | x6 |[K:bass] x6 | x6 | x6 | x6 | x6 | G,4 x2 | x6 | %14
 G,4 z3/2 [D,=B,D]/ | x6 | x11/2[K:treble] x/ | x2 [=B,D]4 | [^F,CD]2 x4 | x6 | x6 | x6 | x6 | %23
 E2 D2 C2 | x6 | x6 | x6 | x6 ||[M:4/4][K:bass] x8 | x8 | x8 | x8 | x8 | x8 | x8 | x8 | x8 | x8 | %38
 x8 | x8 | x8 | x8 | x8 | x8 | x8 | x8 | x8 | x8 | x8 | x8 | x8 | x8 | x8 | x6[K:treble] x2 | x8 | %55
 x8 | x8 | x8 | x8 | x8 ||[K:C][M:6/8] x6 | x6 | x6 | x6 | x6 | x6 | x6 |[K:bass] x6 | x6 | x6 | %70
 x6 | x6 |[K:treble] x6 | x6 | x6 | x6 | x6 | x6 | x6 | x6 | x6 | x[K:bass] x5 | x6 | x6 | x6 | %85
 x6 | x6 | x6 |[K:treble] x6 | x6 | x6 | x6 | x6 | x6 |[K:bass] x6 | x6 | x6 | x6 | x6 | %99
[K:treble] x6 | x6 | x6 | x6 | x6 | x6 | x6 | x6 | x6 | x[K:bass] x5 | x6 | x6 || %111
[K:Eb][M:3/4][K:treble] x7/2 [G,C]2 x/ | x6 | x6 | x6 | x6 | x6 | x6 | x6 |[K:bass] x6 | x6 | x6 |] %122
V:5
 x6 | x6 | x6 | x6 | x6 | x6 | x6 | x6 | x6 | x6 | x6 | x6 | x6 | x6 | x6 | x6 | x6 | %17
 x2 (A,,7/2 G,,/) | ^F,,>D,, x4 | x6 | x6 | x6 | x6 | x6 | x6 | x6 | x6 | x6 ||[M:4/4] x8 | x8 | %30
 x8 | x8 | x8 | x8 | x8 | x8 | x8 | x8 | x8 | x8 | x8 | x8 | x8 | x8 | x8 | x8 | x8 | x8 | x8 | %49
 x8 | x8 | x8 | x8 | x8 | x8 | x8 | x8 | x8 | x8 | x8 ||[K:C][M:6/8] G,,3 _A,,3 | G,,3 _A,,3 | %62
 G,,3 _A,,3 | G,,3 _A,,3 | G,,3 _A,,3 | G,,3 _A,,3 | G,,3 ^G,,3 | =A,,3 F,,3 | E,,3 E,,3 | %69
 E,,3 E,,3 | E,,3 E,,3 | E,,3 x3 | x6 | x6 | x6 | x6 | x6 | x6 | x6 | x6 | x6 | x6 | x6 | x6 | x6 | %85
 x6 | x6 | x6 | G,,3 _A,,3 | G,,3 _A,,3 | G,,3 _B,,3 | A,,3 _B,,3 | A,,3 _B,,3 | A,,3 _B,,3 | %94
 _B,,3 A,,3 | ^G,,3 A,,3 | ^G,,3 A,,3 | E,,3 E,,3 | E,,3 x3 | x6 | x6 | x6 | x6 | x6 | x6 | x6 | %106
 x6 | x6 | x6 | x6 | x6 ||[K:Eb][M:3/4] x6 | x6 | x6 | x6 | x6 | x6 | x6 | x6 | x6 | x6 | x6 |] %122

